svg/train_car_passenger_door_open.svg

<svg xmlns="http://www.w3.org/2000/svg" id="mdi-train-car-passenger-door-open" viewBox="0 0 24 24"><path d="M21 7H3C1.9 7 1 7.9 1 9V17H2C2 18.11 2.9 19 4 19S6 18.11 6 17H18C18 18.11 18.9 19 20 19S22 18.11 22 17H23V9C23 7.9 22.11 7 21 7M8 12H3V9H8V12M14 16H10V9H14V16M21 12H16V9H21V12Z" /></svg>

<svg xmlns="http://www.w3.org/2000/svg" viewBox="0 0 24 24"><path d="M21 7H3c-1.1 0-2 .9-2 2v8h1a2 2 0 1 0 4 0h12a2 2 0 1 0 4 0h1V9a2 2 0 0 0-2-2M8 12H3V9h5zm6 4h-4V9h4zm7-4h-5V9h5z"/></svg>
